svg/bar_chart.svg

<svg xmlns="http://www.w3.org/2000/svg" viewBox="0 0 32 32"><path d="M21 4v24h8V4h-8zm2 2h4v20h-4V6zM3 10v18h8V10H3zm2 2h4v14H5V12zm7 4v12h8V16h-8zm2 2h4v8h-4v-8z"/></svg>

<svg xmlns="http://www.w3.org/2000/svg" viewBox="0 0 32 32" enable-background="new 0 0 32 32"><path d="M 21 4 L 21 5 L 21 27 L 21 28 L 22 28 L 28 28 L 29 28 L 29 27 L 29 5 L 29 4 L 28 4 L 22 4 L 21 4 z M 23 6 L 27 6 L 27 26 L 23 26 L 23 6 z M 3 10 L 3 11 L 3 27 L 3 28 L 4 28 L 10 28 L 11 28 L 11 27 L 11 11 L 11 10 L 10 10 L 4 10 L 3 10 z M 5 12 L 9 12 L 9 26 L 5 26 L 5 12 z M 12 16 L 12 17 L 12 27 L 12 28 L 13 28 L 19 28 L 20 28 L 20 27 L 20 17 L 20 16 L 19 16 L 13 16 L 12 16 z M 14 18 L 18 18 L 18 26 L 14 26 L 14 18 z" color="#000" overflow="visible" enable-background="accumulate"/></svg>
